logo/aws-amplify.svg

<?xml version="1.0" encoding="UTF-8"?>
<svg width="256px" height="191px" viewBox="0 0 256 191" version="1.1" xmlns="http://www.w3.org/2000/svg" xmlns:xlink="http://www.w3.org/1999/xlink" preserveAspectRatio="xMidYMid">
    <title>Amplify</title>
    <defs>
        <linearGradient x1="100%" y1="22.1718317%" x2="0%" y2="77.8281683%" id="Amplify-linearGradient-1">
            <stop stop-color="#FF9900" offset="0%"></stop>
            <stop stop-color="#FFC300" offset="100%"></stop>
        </linearGradient>
    </defs>
    <g>
        <path d="M55.7091852,158.47619 L127.815882,158.47619 L146.285714,190.984127 L145.765368,190.984127 L0,190.984127 L51.3642878,101.977675 L72.8892597,64.7056839 L91.3696717,96.728228 L55.7091852,158.47619 Z M82.6014712,47.8501573 L100.345402,17.1043291 L200.765899,190.983604 L165.203074,190.983604 L82.6014712,47.8501573 Z M110.221481,0 L145.736961,0 L256,190.984127 L220.439804,190.984127 L110.221481,0 Z" fill="url(#Amplify-linearGradient-1)"></path>
    </g>
</svg>

<svg viewBox="0 0 256 191" xmlns="http://www.w3.org/2000/svg"><defs><linearGradient id="a" x1="100%" x2="0%" y1="22.171%" y2="77.828%"><stop offset="0%" stop-color="#F90"/><stop offset="100%" stop-color="#FFC300"/></linearGradient></defs><path fill="url(#a)" d="M55.7 158.47h72.1l18.46 32.5h-.53H-.04l51.36-89.01 21.52-37.28L91.32 96.7l-35.67 61.74ZM82.59 47.84l17.74-30.75 100.42 173.87h-35.57L82.57 47.82ZM110.21-.02h35.51l110.26 190.98h-35.57L110.19-.03Z"/></svg>
